Sources/FrostedUI/Resources/Icons.xcassets/sealExclamationFilled24.imageset/seal-exclamation-filled-24.svg

<svg width="24" height="24" viewBox="0 0 24 24" fill="none" xmlns="http://www.w3.org/2000/svg" data-fui-icon="true">
  <g clip-path="url(#clip0_6097_530)">
    <path
      d="M12 0C13.1149 3.702e-05 14.1105 0.506882 14.7705 1.30273C15.1136 1.7165 15.523 2.09196 16.0195 2.29785C16.517 2.50404 17.0674 2.52457 17.6035 2.47363C18.6358 2.37562 19.7026 2.7223 20.4932 3.5127C21.2822 4.3019 21.6272 5.36604 21.5303 6.39648C21.4797 6.93398 21.5007 7.48591 21.708 7.98438C21.9141 8.47985 22.2887 8.88809 22.7012 9.23145C23.4945 9.89176 24 10.887 24 12C24 13.1096 23.4974 14.1008 22.708 14.7607C22.2937 15.1071 21.917 15.5188 21.71 16.0176C21.5017 16.5193 21.4811 17.0744 21.5312 17.6152C21.6266 18.6441 21.281 19.7062 20.4932 20.4941C19.7036 21.2837 18.6385 21.6294 17.6074 21.5322C17.0685 21.4815 16.5155 21.5023 16.0156 21.71C15.5184 21.9166 15.1077 22.2916 14.7627 22.7051C14.1028 23.4961 13.1109 24 12 24C10.8843 24 9.88775 23.492 9.22754 22.6953C8.88719 22.2845 8.48087 21.9119 7.98828 21.707C7.49374 21.5014 6.94624 21.4812 6.41309 21.5322C5.38014 21.6312 4.31247 21.285 3.52148 20.4941C2.73364 19.706 2.3871 18.6435 2.48242 17.6143C2.53227 17.076 2.51165 16.5234 2.30371 16.0244C2.09596 15.5259 1.71833 15.1154 1.30273 14.7705C0.507193 14.1104 4.62546e-05 13.1146 0 12C9.12501e-06 10.8822 0.509411 9.88305 1.30859 9.22266C1.72264 8.88047 2.09827 8.47246 2.30469 7.97656C2.51113 7.48052 2.53242 6.93144 2.48242 6.39648C2.38608 5.36599 2.73267 4.30169 3.52148 3.5127C4.31304 2.72118 5.38135 2.37585 6.41504 2.47559C6.94584 2.52685 7.49092 2.50534 7.9834 2.30078C8.47562 2.09628 8.88086 1.72392 9.21973 1.3125C9.88 0.510887 10.8803 2.9744e-05 12 0ZM12 15C11.4477 15 11 15.4477 11 16C11 16.5523 11.4477 17 12 17C12.5523 17 13 16.5523 13 16C13 15.4477 12.5523 15 12 15ZM12 6C11.5858 6 11.25 6.33579 11.25 6.75V12.25C11.25 12.6642 11.5858 13 12 13C12.4142 13 12.75 12.6642 12.75 12.25V6.75C12.75 6.33579 12.4142 6 12 6Z"
      fill="currentColor"
    />
  </g>
  <defs>
    <clipPath id="clip0_6097_530"><path fill="currentColor" d="M0 0H24V24H0z" /></clipPath>
  </defs>
</svg>

<svg xmlns="http://www.w3.org/2000/svg" width="24" height="24" fill="none" data-fui-icon="true" viewBox="0 0 24 24"><g clip-path="url(#a)"><path fill="currentColor" d="M12 0a3.59 3.59 0 0 1 2.77 1.303c.344.414.753.789 1.25.995s1.047.227 1.584.176a3.6 3.6 0 0 1 2.89 1.039 3.6 3.6 0 0 1 1.036 2.883c-.05.538-.03 1.09.178 1.588.206.496.58.904.993 1.247A3.6 3.6 0 0 1 24 12c0 1.11-.503 2.1-1.292 2.76-.414.347-.791.759-.998 1.258-.208.501-.229 1.056-.179 1.597a3.6 3.6 0 0 1-1.038 2.88 3.6 3.6 0 0 1-2.886 1.037c-.538-.05-1.091-.03-1.591.178-.498.207-.908.582-1.253.995A3.59 3.59 0 0 1 12 24a3.6 3.6 0 0 1-2.772-1.305c-.34-.41-.747-.783-1.24-.988-.494-.206-1.042-.226-1.575-.175a3.6 3.6 0 0 1-2.892-1.038 3.6 3.6 0 0 1-1.039-2.88c.05-.538.03-1.09-.178-1.59-.208-.498-.586-.909-1.001-1.254A3.6 3.6 0 0 1 0 12c0-1.118.51-2.117 1.309-2.777.414-.343.79-.75.996-1.246s.227-1.046.177-1.58a3.6 3.6 0 0 1 1.04-2.884 3.6 3.6 0 0 1 2.893-1.037c.53.05 1.076.03 1.568-.175.493-.205.898-.577 1.237-.989A3.6 3.6 0 0 1 12 0m0 15a1 1 0 1 0 0 2 1 1 0 0 0 0-2m0-9a.75.75 0 0 0-.75.75v5.5a.75.75 0 0 0 1.5 0v-5.5A.75.75 0 0 0 12 6"/></g><defs><clipPath id="a"><path fill="currentColor" d="M0 0h24v24H0z"/></clipPath></defs></svg>
